icons/square-person-outline.svg

<svg xmlns="http://www.w3.org/2000/svg" width="24" height="24" viewBox="0 0 24 24">
  <path d="M19,2 C20.6568542,2 22,3.34314575 22,5 L22,5 L22,19 C22,20.6568542 20.6568542,22 19,22 L19,22 L5,22 C3.34314575,22 2,20.6568542 2,19 L2,19 L2,5 C2,3.34314575 3.34314575,2 5,2 L5,2 Z M19,4 L5,4 C4.44771525,4 4,4.44771525 4,5 L4,5 L4,19 C4,19.5522847 4.44771525,20 5,20 L5,20 L19,20 C19.5522847,20 20,19.5522847 20,19 L20,19 L20,5 C20,4.44771525 19.5522847,4 19,4 L19,4 Z M13,14 C16,14 17,15 17,16.5 C17,17.4375 16.5605469,17.9355469 16.0936279,17.9941406 L16,18 L8,18 C7.5,18 7,17.5 7,16.5 C7,15.046875 7.93847656,14.0629883 10.7245789,14.0029144 L11,14 L13,14 Z M12,6 C13.6568542,6 15,7.34314575 15,9 C15,10.6568542 13.6568542,12 12,12 C10.3431458,12 9,10.6568542 9,9 C9,7.34314575 10.3431458,6 12,6 Z"/>
</svg>

<svg xmlns="http://www.w3.org/2000/svg" viewBox="0 0 24 24">
  <path d="M19 2a3 3 0 0 1 3 3v14a3 3 0 0 1-3 3H5a3 3 0 0 1-3-3V5a3 3 0 0 1 3-3zm0 2H5a1 1 0 0 0-1 1v14a1 1 0 0 0 1 1h14a1 1 0 0 0 1-1V5a1 1 0 0 0-1-1zm-6 10c3 0 4 1 4 2.5 0 .94-.44 1.44-.9 1.5H8c-.5 0-1-.5-1-1.5 0-1.45.94-2.44 3.72-2.5H13zm-1-8a3 3 0 1 1 0 6 3 3 0 0 1 0-6z"/>
</svg>
